UI/Core-UI/SVG/lock-break_outline_24px.svg

<svg width="24" height="24" viewBox="0 0 24 24" fill="none" xmlns="http://www.w3.org/2000/svg">
<path d="M8.22 11L8.1 11.36L7.84 12.14L8.21 12.88L9.69 15.88L8.34 17.88L7.79 18.69L8.1 19.62L8.23 19.99H6V11H8.22ZM10 2.39999C9.11986 2.75885 8.36546 3.36993 7.83167 4.15638C7.29788 4.94283 7.00853 5.86954 7 6.81999V8.99999H4V20C4 20.5304 4.21071 21.0391 4.58579 21.4142C4.96086 21.7893 5.46957 22 6 22H11L10 19L12 16L10 12L11 8.99999H9V6.81999C9.00113 6.41925 9.09146 6.02378 9.26442 5.66228C9.43739 5.30078 9.68866 4.98232 10 4.72999V2.39999ZM18 11V20H14.44L14.21 19.3L15.66 17.11L16.31 16.11L15.79 15.11L14.16 11.85L14.44 11.01H18V11ZM14 2.39999V4.71999C14.3233 5.00373 14.5805 5.35497 14.7533 5.74892C14.926 6.14287 15.0103 6.56994 15 6.99999V8.99999H13L12 12L14 16L12 19L13 22H18C18.5304 22 19.0391 21.7893 19.4142 21.4142C19.7893 21.0391 20 20.5304 20 20V8.99999H17V6.99999C17.0221 6.02017 16.7474 5.05655 16.212 4.23563C15.6766 3.41471 14.9056 2.77484 14 2.39999Z" fill="#0F1621"/>
</svg>

<svg xmlns="http://www.w3.org/2000/svg" width="24" height="24" viewBox="0 0 24 24"><rect width="24" height="24" style="fill:none"/><path d="M8.22,11l-.12.36-.26.78.37.74,1.48,3-1.35,2-.55.81.31.93.13.37H6V11H8.22M10,2.4A4.82,4.82,0,0,0,7,6.82V9H4V20a2,2,0,0,0,2,2h5l-1-3,2-3-2-4,1-3H9V6.82a2.7,2.7,0,0,1,1-2.09V2.4ZM18,11v9H14.44l-.23-.7,1.45-2.19.65-1-.52-1-1.63-3.26.28-.84H18M14,2.4V4.72A2.94,2.94,0,0,1,15,7V9H13l-1,3,2,4-2,3,1,3h5a2,2,0,0,0,2-2V9H17V7a4.86,4.86,0,0,0-3-4.6Z"/></svg>
